X: 3
T: Rolling In The Barrel
R: reel
M: 4/4
L: 1/8
K: Dmaj
A,2|~A,2EA,2E2{F}E|DB,G,A,B,G,A,2|~A,2EA,2 ~E3|D=FEA,{B,}A,G, :||!A2 {c}BA eA {c}BA| GFGBdcdB|1A2{c}BA eA{c}BA|GED=FEA,{B,}A,G, :||2AB{c}BAB=cBA|GED=FE2DB,||


Tune 500	Setting 27960

